Printex-remake/img/icons/catalog_small/11.svg

<svg width="88" height="87" viewBox="0 0 88 87" fill="none" xmlns="http://www.w3.org/2000/svg">
<rect width="44.3455" height="24.6129" transform="matrix(0.868498 -0.495693 0.868498 0.495693 11.6533 67.1398)" fill="#E5D795"/>
<path d="M8.19659 61.0556L34.4734 46.0582L55.8496 58.2587L29.5729 73.2561L15.4031 66.3251L8.19659 61.0556Z" fill="#E5D795"/>
<path d="M43.1021 84.7804L81.2654 63.0304L63.9246 53.6403C63.8768 53.6144 63.8296 53.5884 63.783 53.5603C63.3381 53.2915 60.9179 51.7296 60.9179 49.5556L60.9187 6.24439C60.9188 1.73626 58.3199 1.61258 57.0205 2.11425L18.4082 23.8643L19.7551 24.3081C22.2694 24.6632 23.1973 27.7097 23.347 29.1886V67.304C23.3469 69.4726 23.8995 71.2371 24.5042 72.5187C25.3118 74.2305 26.8725 75.3913 28.5108 76.3391L43.1021 84.7804Z" fill="#FFEFA6"/>
<path d="M23.3467 29.1886V67.304C23.3466 69.4726 23.8993 71.2372 24.5039 72.5188C25.3116 74.2305 26.8721 75.3913 28.5104 76.3391L43.1018 84.7806L81.265 63.0306L63.9243 53.6403C63.8765 53.6144 63.8293 53.5884 63.7828 53.5603C63.3379 53.2916 60.9176 51.7296 60.9176 49.5556L60.9184 6.24438" stroke="black" stroke-linejoin="bevel"/>
<path d="M18.8574 67.4113V29.2959" stroke="black" stroke-linejoin="bevel"/>
<path d="M17.959 23.9995L56.5712 2.24951" stroke="black" stroke-linejoin="bevel"/>
<path d="M23.3472 29.1383C23.3473 30.892 21.9402 31.6028 20.2045 30.7259C18.4687 29.849 17.0616 27.7165 17.0615 25.9627C17.0615 24.209 18.4685 23.4982 20.2043 24.3751C21.94 25.252 23.3472 27.3846 23.3472 29.1383Z" stroke="black" stroke-linejoin="bevel"/>
<path d="M14.3677 65.401C14.3678 67.1547 12.9608 67.8655 11.225 66.9886C9.48925 66.1117 8.0821 63.9792 8.08203 62.2254C8.08197 60.4717 9.48902 59.7609 11.2248 60.6378C12.9605 61.5147 14.3677 63.6473 14.3677 65.401Z" fill="#E5D795"/>
<path d="M21.5513 28.3444C21.5513 29.2213 20.9483 29.5767 20.2044 29.1382C19.4605 28.6998 18.8574 27.6335 18.8574 26.7566C18.8574 25.8798 19.4604 25.5244 20.2043 25.9628C20.9482 26.4013 21.5513 27.4676 21.5513 28.3444Z" stroke="black" stroke-linejoin="bevel"/>
<path d="M61.0611 6.68829C61.061 4.83332 60.5918 3.1353 59.2652 2.2496C58.3711 1.65269 57.4692 1.5832 56.5713 2.2497" stroke="black" stroke-linejoin="bevel"/>
<path d="M57.3588 43.6728L47.9608 30.9663L41.9035 46.0701L38.1333 43.9181L28.7344 60.0125L57.3588 43.6728Z" fill="white"/>
<path d="M57.3588 43.6728L47.9608 30.9663L41.9035 46.0701L38.1333 43.9181L28.7344 60.0125" stroke="black"/>
<ellipse rx="3.95369" ry="3.91985" transform="matrix(0.868466 -0.495748 -3.22572e-05 1 34.0224 40.0901)" fill="white"/>
<path d="M34.1149 44.0845C32.2181 45.1672 30.6806 44.2925 30.6807 42.1309C30.6807 39.9692 32.2184 37.3391 34.1151 36.2563" stroke="black"/>
</svg>

<svg width="88" height="87" fill="none" xmlns="http://www.w3.org/2000/svg"><path fill="#E5D795" d="M11.653 67.14l38.515-21.982 21.376 12.2L33.03 79.34z"/><path d="M8.197 61.056l26.276-14.998 21.377 12.2-26.277 14.998-14.17-6.93-7.206-5.27z" fill="#E5D795"/><path d="M43.102 84.78l38.163-21.75-17.34-9.39a3.52 3.52 0 01-.142-.08c-.445-.269-2.865-1.83-2.865-4.004V6.244c0-4.508-2.598-4.631-3.898-4.13l-38.612 21.75 1.347.444c2.514.355 3.442 3.402 3.592 4.88v38.116c0 2.169.552 3.933 1.157 5.215.808 1.712 2.368 2.872 4.007 3.82l14.591 8.441z" fill="#FFEFA6"/><path d="M23.347 29.189v38.115c0 2.169.552 3.933 1.157 5.215.808 1.712 2.368 2.872 4.006 3.82l14.592 8.442 38.163-21.75-17.34-9.39a3.448 3.448 0 01-.142-.08c-.445-.27-2.865-1.831-2.865-4.005V6.244M18.857 67.411V29.296M17.959 24L56.571 2.25" stroke="#000" stroke-linejoin="bevel"/><path d="M23.347 29.138c0 1.754-1.407 2.465-3.143 1.588-1.735-.877-3.142-3.01-3.143-4.763 0-1.754 1.407-2.465 3.143-1.588 1.736.877 3.143 3.01 3.143 4.763z" stroke="#000" stroke-linejoin="bevel"/><path d="M14.368 65.401c0 1.754-1.407 2.465-3.143 1.588-1.736-.877-3.143-3.01-3.143-4.764 0-1.753 1.407-2.464 3.143-1.587 1.736.877 3.143 3.01 3.143 4.763z" fill="#E5D795"/><path d="M21.551 28.344c0 .877-.603 1.233-1.347.794-.744-.438-1.347-1.505-1.347-2.381 0-.877.603-1.233 1.347-.794.744.438 1.347 1.505 1.347 2.381zm39.51-21.656c0-1.855-.47-3.553-1.796-4.438-.894-.597-1.796-.667-2.694 0" stroke="#000" stroke-linejoin="bevel"/><path d="M57.359 43.673L47.96 30.966 41.904 46.07l-3.77-2.152-9.4 16.095 28.625-16.34z" fill="#fff"/><path d="M57.359 43.673L47.96 30.966 41.904 46.07l-3.77-2.152-9.4 16.095" stroke="#000"/><ellipse rx="3.954" ry="3.92" transform="matrix(.86847 -.49575 -.00003 1 34.022 40.09)" fill="#fff"/><path d="M34.115 44.084c-1.897 1.083-3.434.208-3.434-1.953 0-2.162 1.537-4.792 3.434-5.875" stroke="#000"/></svg>
